logos/assembla.svg

<?xml version="1.0" encoding="UTF-8"?>
<svg width="512px" height="142px" viewBox="0 0 512 142" version="1.1" xmlns="http://www.w3.org/2000/svg" xmlns:xlink="http://www.w3.org/1999/xlink"  preserveAspectRatio="xMidYMid">
    <title>Assembla</title>
    <g fill="#263238">
          <path d="M189.649718,81.0789201 L167.520904,81.0789201 L163.362712,91.420163 C163.129886,92.4441667 162.164364,93.129376 161.120904,93.0111235 C160.52669,93.0064884 159.95703,92.7734458 159.529944,92.360276 C158.972074,92.0813414 158.892379,91.5367547 158.880994,91.0225283 L158.879096,90.7693155 C158.828445,90.3999532 158.948143,90.0275611 159.20452,89.7568862 L174.246328,52.6947393 C174.673782,51.4986589 175.324052,50.3944281 176.162712,49.440502 C177.626716,48.1028607 179.869329,48.1028607 181.333333,49.440502 C182.190665,50.3807791 182.843255,51.4889501 183.249718,52.6947393 L198.291525,89.7568862 C198.291525,90.0823099 198.616949,90.4077336 198.616949,90.7693155 C198.612314,91.3635298 198.379271,91.9331896 197.966102,92.360276 C197.52962,92.7588329 196.965815,92.9894807 196.375141,93.0111235 C195.348359,93.0682648 194.41834,92.4082514 194.133333,91.420163 L189.649718,81.0789201 Z M178.80226,53.3817449 L169.220339,77.5715754 L188.420339,77.5715754 L178.80226,53.3817449 Z M208.524294,88.1659257 C208.19887,87.840502 208.19887,87.840502 208.19887,87.5150783 C208.19887,87.1896545 208.524294,86.5026489 209.211299,85.9241178 C209.53006,85.5266969 210.000795,85.2896205 210.500178,85.2633397 L210.80226,85.2732703 C211.127684,85.2732703 211.453107,85.2732703 211.453107,85.5986941 C212.922649,86.9295511 214.661475,87.9284509 216.551412,88.5275076 C218.670695,89.4870027 220.990155,89.9211263 223.312994,89.7930444 C225.999425,89.905961 228.661289,89.240495 230.978531,87.8766602 C232.926027,86.5830171 234.040927,84.3532153 233.907345,82.0190331 C233.9779,80.9237841 233.86796,79.8243852 233.581921,78.7647958 C233.219236,77.9116714 232.676539,77.1469618 231.99096,76.5229879 C231.255708,75.8012486 230.365245,75.2570764 229.387571,74.9320274 C228.212213,74.4291322 227.004182,74.0063215 225.771751,73.6664907 L217.744633,71.0631009 C215.026057,70.2993749 212.540637,68.8702582 210.512994,66.9049088 C208.762507,65.0984134 207.822613,62.6573004 207.909605,60.1433268 C207.829985,55.8018854 210.504409,51.9126034 214.527794,50.4074712 L215.141243,50.199824 C217.58045,49.2489077 220.19136,48.8178612 222.80678,48.9342873 C225.554691,48.9933544 228.271188,49.5317591 230.833898,50.5252477 C232.903494,51.3137166 234.84183,52.4108881 236.583051,53.779485 C236.91177,54.133789 237.136902,54.5715456 237.233898,55.0450218 C237.249855,55.4504471 237.094991,55.8388612 236.815405,56.1206292 L236.583051,56.3105585 C236.228747,56.6392781 235.79099,56.86441 235.317514,56.9614059 C234.99209,56.9614059 234.305085,56.9614059 234.051977,56.6359822 C232.633023,55.6242171 231.119357,54.7523454 229.532203,54.0325924 C227.471108,53.2593331 225.296468,52.8317354 223.096045,52.7670557 C220.409615,52.654139 217.747751,53.319605 215.430508,54.6834398 C213.64563,55.8036348 212.544718,57.7472209 212.501695,59.8540613 C212.439437,61.3996368 213.014623,62.902963 214.092655,64.0122534 C215.747011,65.2494442 217.57452,66.2362991 219.516384,66.941067 L227.543503,69.5444568 L228.892846,70.0875676 L228.892846,70.0875676 L230.728692,70.7915455 L230.728692,70.7915455 L231.701695,71.1354172 L231.701695,71.1354172 C232.888826,71.6847256 233.966817,72.4442193 234.883616,73.3772251 C235.746033,74.0902079 236.428834,74.9915519 236.881699,76.0082125 L237.125424,76.6314624 C237.687644,77.9410151 237.911459,79.3709423 237.776271,80.7896545 C238.044842,84.41049 236.484083,87.9255907 233.618079,90.1546263 C230.144958,92.5459395 225.965369,93.692778 221.758192,93.4088636 C216.823715,93.4987896 212.058344,91.6108696 208.524294,88.1659257 Z M250.829379,88.1659257 C250.503955,87.840502 250.503955,87.840502 250.503955,87.5150783 C250.503955,87.1896545 250.829379,86.5026489 251.516384,85.9241178 C251.835145,85.5266969 252.30588,85.2896205 252.805263,85.2633397 L253.107345,85.2732703 C253.432768,85.2732703 253.758192,85.2732703 253.758192,85.5986941 C255.227734,86.9295511 256.966559,87.9284509 258.856497,88.5275076 C260.975779,89.4870027 263.29524,89.9211263 265.618079,89.7930444 C268.304509,89.905961 270.966373,89.240495 273.283616,87.8766602 C275.231111,86.5830171 276.346012,84.3532153 276.212429,82.0190331 C276.282985,80.9237841 276.173045,79.8243852 275.887006,78.7647958 C275.524321,77.9116714 274.981624,77.1469618 274.296045,76.5229879 C273.560793,75.8012486 272.670329,75.2570764 271.692655,74.9320274 C270.517297,74.4291322 269.309267,74.0063215 268.076836,73.6664907 L260.338983,71.0631009 C257.620407,70.2993749 255.134987,68.8702582 253.107345,66.9049088 C251.515993,65.2626403 250.594553,63.0958944 250.505527,60.8267275 L250.503955,60.1433268 C250.420354,55.5848133 253.373087,51.5248056 257.735593,50.199824 C260.174801,49.2489077 262.78571,48.8178612 265.40113,48.9342873 C268.149041,48.9933544 270.865538,49.5317591 273.428249,50.5252477 C275.497844,51.3137166 277.43618,52.4108881 279.177401,53.779485 C279.506121,54.133789 279.731253,54.5715456 279.828249,55.0450218 C279.844205,55.4504471 279.689341,55.8388612 279.409755,56.1206292 L279.177401,56.3105585 C278.823097,56.6392781 278.385341,56.86441 277.911864,56.9614059 C277.586441,56.9614059 276.899435,56.9614059 276.646328,56.6359822 C275.227373,55.6242171 273.713707,54.7523454 272.126554,54.0325924 C270.065458,53.2593331 267.890818,52.8317354 265.690395,52.7670557 C263.003965,52.654139 260.342101,53.319605 258.024859,54.6834398 C256.23998,55.8036348 255.139068,57.7472209 255.096045,59.8540613 C255.033264,61.4173291 255.622578,62.9364499 256.723164,64.0484116 C258.377519,65.2856023 260.205029,66.2724573 262.146893,66.9772251 L270.174011,69.580615 L272.171145,70.377571 L272.171145,70.377571 L273.3592,70.8277036 L273.3592,70.8277036 L274.332203,71.1715754 L274.332203,71.1715754 C275.519334,71.7208838 276.597326,72.4803775 277.514124,73.4133833 C278.376542,74.1263661 279.059343,75.0277101 279.512208,76.0443707 L279.755932,76.6676206 C280.318153,77.9771733 280.541967,79.4071005 280.40678,80.8258127 C280.675351,84.4466482 279.114592,87.9617489 276.248588,90.1907845 C272.775467,92.5820977 268.595878,93.7289362 264.388701,93.4450218 C259.334198,93.6312086 254.427357,91.720812 250.829379,88.1659257 Z M294.327684,92.4325924 C293.850778,92.0500793 293.60477,91.4487243 293.676836,90.8416319 L293.676836,51.0676206 C293.681471,50.4734063 293.914514,49.9037466 294.327684,49.4766602 C294.606618,48.9187909 295.151205,48.8390953 295.665431,48.8277102 L318.951412,48.8258127 C319.545627,48.8304478 320.115286,49.0634904 320.542373,49.4766602 C320.871092,49.8309642 321.096224,50.2687207 321.19322,50.7421969 C321.213166,51.2489786 320.966205,51.7291803 320.542373,52.0077336 C320.08475,52.3715863 319.532842,52.597367 318.951412,52.6585811 L298.413559,52.6585811 L298.413559,68.0981291 L317.938983,68.0981291 C318.533197,68.1027641 319.102857,68.3358068 319.529944,68.7489766 C319.858663,69.1032806 320.083795,69.5410371 320.180791,70.0145133 C320.196747,70.4199386 320.041884,70.8083528 319.762298,71.0901207 L319.529944,71.28005 C319.093462,71.6786069 318.529657,71.9092547 317.938983,71.9308975 L298.413559,71.9308975 L298.413559,88.7082986 L319.855367,88.7082986 C320.449582,88.7129336 321.019241,88.9459763 321.446328,89.3591461 C321.775047,89.7134501 322.000179,90.1512066 322.097175,90.6246828 C322.11712,91.1314644 321.87016,91.6116661 321.446328,91.8902195 C320.988705,92.2540722 320.436797,92.4798529 319.855367,92.541067 L296.171751,92.541067 C295.665537,93.0111235 294.978531,92.7580161 294.327684,92.4325924 Z M357.449038,91.6997044 L357.098305,91.4563212 C356.497865,91.0965832 356.048232,90.5313298 355.832768,89.8653607 L339.887006,54.719598 L339.887006,91.2032138 C339.902962,91.6086392 339.748098,91.9970533 339.468513,92.2788213 L339.236158,92.4687506 C338.820244,92.9019001 338.2457,93.1467434 337.645198,93.1467434 C337.164796,93.1467434 336.701008,92.9900437 336.32176,92.7055912 L336.054237,92.4687506 C335.662605,92.1624253 335.424764,91.6999574 335.40339,91.2032138 L335.40339,52.4777901 C335.357717,51.5788717 335.71767,50.7142867 336.371197,50.1145453 L336.668927,49.8744003 C337.36607,49.2018171 338.303937,48.837091 339.272316,48.8619709 C341.188701,48.8619709 342.454237,49.8744003 343.430508,52.1162082 L359.123164,86.5749653 L374.815819,52.1162082 C375.828249,50.199824 377.057627,48.8619709 378.974011,48.8619709 C379.942391,48.837091 380.880258,49.2018171 381.577401,49.8744003 C382.323328,50.5434127 382.777608,51.4779318 382.842938,52.4777901 L382.842938,91.2032138 C382.858894,91.6086392 382.70403,91.9970533 382.424445,92.2788213 L382.19209,92.4687506 C381.755609,92.8673075 381.191803,93.0979552 380.60113,93.119598 C380.006916,93.114963 379.437256,92.8819204 379.010169,92.4687506 C378.618537,92.1624253 378.380697,91.6999574 378.359322,91.2032138 L378.359322,54.719598 L362.341243,89.8653607 C362.080226,90.505795 361.641019,91.0579407 361.075706,91.4563212 L360.401139,91.8260025 C360.100881,91.9900161 359.831864,92.1071687 359.484746,92.1071687 C358.775366,92.209159 358.057184,92.0625342 357.449038,91.6997044 L357.449038,91.6997044 Z M397.487006,92.4325924 C396.929136,92.1536578 396.849441,91.6090711 396.838056,91.0948447 L396.836158,51.0676206 C396.840793,50.4734063 397.073836,49.9037466 397.487006,49.4766602 C398.050822,49.0817123 398.715664,48.8559169 399.40339,48.8258127 L411.263277,48.8258127 C421.532203,48.8258127 426.630508,52.6585811 426.630508,60.1071687 C426.593692,62.5987686 425.670763,64.9958222 424.027119,66.8687506 C422.458614,68.6403853 420.302146,69.7706883 417.970029,70.0612199 L417.265537,70.1229879 C420.253691,70.1675087 423.11708,71.328342 425.292655,73.3772251 C427.293867,75.4571693 428.352784,78.2678753 428.221469,81.1512364 C428.213331,82.7131474 427.867983,84.2548799 427.20904,85.6710105 C426.578813,87.0947737 425.696891,88.3931577 424.60565,89.5037788 C423.333225,90.7262682 421.781786,91.6198975 420.085876,92.1071687 C417.904099,92.8187324 415.618802,93.1609159 413.324294,93.119598 L398.861017,93.119598 C398.47243,93.0587529 398.105213,92.9085068 397.787363,92.6828576 L397.487006,92.4325924 Z M410.576271,68.2427619 C413.385714,68.448715 416.189968,67.779231 418.60339,66.3263777 C420.319039,65.0014076 421.290476,62.9463979 421.244692,60.8021648 L421.20678,60.2156432 C421.176436,59.1017821 420.95633,58.0012562 420.555932,56.9614059 C420.193247,56.1082815 419.65055,55.343572 418.964972,54.719598 C418.364364,54.0788561 417.582073,53.6372404 416.723164,53.4540613 C415.788782,53.0792862 414.799519,52.85945 413.79435,52.8032138 L400.99435,52.8032138 L400.99435,68.7128184 L410.576271,68.3873946 L410.576271,68.2427619 Z M412.167232,89.1783551 C414.976675,89.3843082 417.780928,88.7148242 420.19435,87.2619709 C422.059142,85.530666 423.019947,83.0352441 422.79774,80.500389 C423.031712,77.9273615 421.802313,75.4406234 419.615819,74.0642308 C416.6583,72.5580175 413.343228,71.8950031 410.033898,72.1478466 L401.355932,72.1478466 L401.355932,89.2506715 L412.167232,89.1783551 Z M440.384112,92.6686744 L440.045198,92.4325924 C439.487328,92.1536578 439.407633,91.6090711 439.396248,91.0948447 L439.39435,51.0676206 C439.398985,50.4734063 439.632028,49.9037466 440.045198,49.4766602 C440.609014,49.0817123 441.273856,48.8559169 441.961582,48.8258127 C442.555796,48.8304478 443.125456,49.0634904 443.552542,49.4766602 C444.110412,49.7555948 444.190107,50.3001814 444.201492,50.8144079 L444.20339,89.1783551 L464.741243,89.1783551 C465.335457,89.1829901 465.905117,89.4160328 466.332203,89.8292025 C466.660923,90.1835065 466.886055,90.6212631 466.983051,91.0947393 C466.999007,91.5001646 466.844143,91.8885788 466.564558,92.1703467 L466.332203,92.360276 C465.895722,92.7588329 465.331916,92.9894807 464.741243,93.0111235 L441.961582,93.0111235 C441.409287,93.0673398 440.857321,92.9452981 440.384112,92.6686744 L440.384112,92.6686744 Z M503.141243,81.0789201 L480.903955,81.0789201 L476.745763,91.420163 C476.512937,92.4441667 475.547414,93.129376 474.503955,93.0111235 C473.909741,93.0064884 473.340081,92.7734458 472.912994,92.360276 C472.355125,92.0813414 472.275429,91.5367547 472.264044,91.0225283 L472.262147,90.7693155 C472.211496,90.3999532 472.331194,90.0275611 472.587571,89.7568862 L487.629379,52.6947393 C488.056833,51.4986589 488.707103,50.3944281 489.545763,49.440502 C491.009767,48.1028607 493.25238,48.1028607 494.716384,49.440502 C495.573716,50.3807791 496.226306,51.4889501 496.632768,52.6947393 L511.674576,89.7568862 C511.674576,90.0823099 512,90.4077336 512,90.7693155 C511.995365,91.3635298 511.762322,91.9331896 511.349153,92.360276 C510.912671,92.7588329 510.348866,92.9894807 509.758192,93.0111235 C508.73141,93.0682648 507.801391,92.4082514 507.516384,91.420163 L503.141243,81.0789201 Z M492.293785,53.3817449 L482.711864,77.5715754 L501.911864,77.5715754 L492.293785,53.3817449 Z"></path>
          <path d="M115.923164,26.48005 L75.5344633,2.94106696 C71.835876,0.887550789 67.6496764,-0.124634792 63.4214689,0.0122533961 C59.1749031,-0.080388517 54.9767628,0.928660041 51.2361582,2.94106696 L11.4621469,26.48005 C4.48366716,31.1971032 0.214243039,38.9951996 0,47.4156432 L0,94.4212929 C0.230641365,102.855131 4.52848509,110.655919 11.5344633,115.356886 L51.5977401,138.895869 C55.2166784,140.918485 59.3131645,141.930117 63.4576271,141.824683 C67.6056245,141.963229 71.7108616,140.949436 75.3175141,138.895869 L115.706215,115.429203 C122.734149,110.661037 127.216715,102.959535 127.891525,94.4936093 L127.891525,47.4879596 C127.681444,38.9202516 123.186127,31.0296791 115.923164,26.48005 Z M92.5649718,94.4936093 C92.1942774,94.7469954 91.746378,94.8621695 91.299435,94.8190331 C90.2271468,94.7355639 89.2594796,94.1442117 88.6960452,93.2280726 L72.6779661,60.9388071 L56.659887,93.1557562 C56.1195024,94.0946755 55.1385424,94.6941511 54.0564972,94.7467167 C53.7310734,94.7467167 53.0440678,94.7467167 52.7909605,94.4212929 C51.3550894,93.6409036 50.8214112,91.845804 51.5977401,90.4077336 L69.6768362,54.6111235 L63.5661017,42.4258127 L38.2553672,93.3365472 C37.5364609,94.7444052 35.8123779,95.3029109 34.4045198,94.5840047 C32.9966618,93.8650985 32.438156,92.1410154 33.1570621,90.7331574 L60.9265537,34.8325924 C61.3205997,33.7628758 62.3982601,33.1043055 63.5299435,33.2416319 C64.6204659,33.2659941 65.6141795,33.8732635 66.1333333,34.8325924 L72.7141243,48.4280726 L75.9322034,54.5026489 L94.0112994,90.660841 C94.6311693,92.1196479 93.9940578,93.8079934 92.5649718,94.4936093 Z"></path>
    </g>
</svg>

<?xml version="1.0" encoding="UTF-8"?>
<svg width="512" height="142" version="1.1" xmlns="http://www.w3.org/2000/svg" preserveAspectRatio="xMidYMid">
	<g fill="#263238">
		<path d="M189.65 81.079h-22.13l-4.157 10.341a2.061 2.061 0 0 1-2.242 1.591 2.314 2.314 0 0 1-1.591-.65c-.558-.28-.638-.824-.649-1.338l-.002-.254a1.23 1.23 0 0 1 .326-1.012l15.041-37.062a10.052 10.052 0 0 1 1.917-3.254 3.833 3.833 0 0 1 5.17 0 9.184 9.184 0 0 1 1.917 3.254l15.042 37.062c0 .325.325.65.325 1.012a2.314 2.314 0 0 1-.65 1.591c-.437.399-1.001.63-1.592.651a2.206 2.206 0 0 1-2.242-1.59l-4.483-10.342Zm-10.848-27.697-9.582 24.19h19.2l-9.618-24.19Zm29.722 34.784c-.325-.325-.325-.325-.325-.65 0-.326.325-1.013 1.012-1.592.32-.397.79-.634 1.29-.66l.301.01c.326 0 .651 0 .651.325a13.812 13.812 0 0 0 5.098 2.929c2.12.959 4.44 1.393 6.762 1.265a13.957 13.957 0 0 0 7.666-1.916 6.58 6.58 0 0 0 2.928-5.858c.07-1.095-.039-2.195-.325-3.254a6.436 6.436 0 0 0-1.591-2.242 6.762 6.762 0 0 0-2.603-1.591 28.348 28.348 0 0 0-3.616-1.266l-8.027-2.603a16.994 16.994 0 0 1-7.232-4.158 9.256 9.256 0 0 1-2.603-6.762 10.197 10.197 0 0 1 6.618-9.736l.613-.207c2.44-.951 5.05-1.382 7.666-1.266 2.748.06 5.464.598 8.027 1.591a21.948 21.948 0 0 1 5.75 3.254c.328.355.553.793.65 1.266.016.405-.139.794-.419 1.076l-.232.19a2.64 2.64 0 0 1-1.265.65c-.326 0-1.013 0-1.266-.325a26.974 26.974 0 0 0-4.52-2.603 19.995 19.995 0 0 0-6.436-1.266 13.957 13.957 0 0 0-7.665 1.916 6.255 6.255 0 0 0-2.93 5.171 5.64 5.64 0 0 0 1.592 4.158 21.044 21.044 0 0 0 5.423 2.93l8.028 2.602 1.349.544 1.836.704.973.343a10.847 10.847 0 0 1 3.182 2.242 7.232 7.232 0 0 1 1.998 2.631l.243.623c.563 1.31.786 2.74.651 4.159a10.847 10.847 0 0 1-4.158 9.365 18.694 18.694 0 0 1-11.86 3.254c-4.934.09-9.7-1.798-13.234-5.243Zm42.305 0c-.325-.325-.325-.325-.325-.65 0-.326.325-1.013 1.012-1.592.32-.397.79-.634 1.29-.66l.301.01c.326 0 .651 0 .651.325a13.812 13.812 0 0 0 5.098 2.929c2.12.959 4.44 1.393 6.762 1.265a13.957 13.957 0 0 0 7.666-1.916 6.58 6.58 0 0 0 2.928-5.858c.071-1.095-.039-2.195-.325-3.254a6.436 6.436 0 0 0-1.591-2.242 6.762 6.762 0 0 0-2.603-1.591 28.348 28.348 0 0 0-3.616-1.266l-7.738-2.603a16.994 16.994 0 0 1-7.232-4.158 9.257 9.257 0 0 1-2.601-6.078l-.002-.684a10.197 10.197 0 0 1 7.232-9.943c2.439-.951 5.05-1.382 7.665-1.266 2.748.06 5.465.598 8.027 1.591a21.948 21.948 0 0 1 5.75 3.254c.328.355.553.793.65 1.266.016.405-.139.794-.418 1.076l-.233.19a2.64 2.64 0 0 1-1.265.65c-.326 0-1.013 0-1.266-.325a26.974 26.974 0 0 0-4.52-2.603 19.995 19.995 0 0 0-6.436-1.266 13.957 13.957 0 0 0-7.665 1.916 6.255 6.255 0 0 0-2.929 5.171 5.64 5.64 0 0 0 1.627 4.194 21.044 21.044 0 0 0 5.424 2.93l8.027 2.603 1.997.797 1.188.45.973.344a10.847 10.847 0 0 1 3.182 2.241 7.232 7.232 0 0 1 1.998 2.631l.244.624c.562 1.31.786 2.74.65 4.158a10.847 10.847 0 0 1-4.157 9.365 18.694 18.694 0 0 1-11.86 3.254 18.332 18.332 0 0 1-13.56-5.28Zm43.499 4.267a1.772 1.772 0 0 1-.651-1.591V51.068a2.314 2.314 0 0 1 .65-1.591c.28-.558.824-.638 1.338-.65l23.286-.001a2.314 2.314 0 0 1 1.591.65c.33.355.554.793.651 1.266.02.507-.227.987-.65 1.266-.458.364-1.01.59-1.592.65h-20.537v15.44h19.525a2.314 2.314 0 0 1 1.59.651c.33.354.555.792.652 1.266.016.405-.14.793-.419 1.075l-.232.19c-.437.399-1 .63-1.591.65h-19.525v16.778h21.441a2.314 2.314 0 0 1 1.591.651c.329.354.554.792.651 1.266.02.506-.227.987-.65 1.265-.458.364-1.01.59-1.592.651h-23.683c-.506.47-1.193.217-1.844-.108Zm63.121-.733-.35-.244c-.601-.36-1.05-.925-1.266-1.59L339.887 54.72v36.483c.016.406-.139.794-.418 1.076l-.233.19a2.206 2.206 0 0 1-2.914.237l-.268-.237a1.7 1.7 0 0 1-.65-1.266V52.478a3.001 3.001 0 0 1 .967-2.363l.298-.24a3.616 3.616 0 0 1 2.603-1.013c1.917 0 3.182 1.012 4.159 3.254l15.692 34.459 15.693-34.459c1.012-1.916 2.242-3.254 4.158-3.254a3.616 3.616 0 0 1 2.603 1.012 3.833 3.833 0 0 1 1.266 2.604v38.725c.016.406-.139.794-.419 1.076l-.232.19c-.436.398-1 .629-1.59.65a2.314 2.314 0 0 1-1.592-.65 1.7 1.7 0 0 1-.65-1.266V54.72L362.34 89.865c-.26.64-.7 1.193-1.265 1.591l-.675.37c-.3.164-.57.281-.916.281a3.11 3.11 0 0 1-2.036-.407Zm40.038.733c-.558-.28-.638-.824-.649-1.338l-.002-40.027a2.314 2.314 0 0 1 .651-1.591 3.616 3.616 0 0 1 1.916-.651h11.86c10.27 0 15.368 3.833 15.368 11.281a10.486 10.486 0 0 1-2.604 6.762 9.69 9.69 0 0 1-6.057 3.192l-.704.062a11.968 11.968 0 0 1 8.027 3.254 10.522 10.522 0 0 1 2.928 7.774 10.847 10.847 0 0 1-1.012 4.52 12.945 12.945 0 0 1-2.603 3.833 10.847 10.847 0 0 1-4.52 2.603 20.61 20.61 0 0 1-6.762 1.013h-14.463a2.531 2.531 0 0 1-1.074-.437l-.3-.25Zm13.09-24.19c2.809.206 5.613-.464 8.026-1.917a6.798 6.798 0 0 0 2.642-5.524l-.038-.586a9.799 9.799 0 0 0-.651-3.255 6.436 6.436 0 0 0-1.591-2.241 4.303 4.303 0 0 0-2.242-1.266 9.256 9.256 0 0 0-2.929-.65h-12.8v15.909l9.582-.326v-.144Zm1.59 20.935c2.81.206 5.614-.463 8.027-1.916a8.244 8.244 0 0 0 2.604-6.762 6.87 6.87 0 0 0-3.182-6.436 18.08 18.08 0 0 0-9.582-1.916h-8.678V89.25l10.811-.073Zm28.217 3.49-.339-.235c-.558-.28-.637-.824-.649-1.338l-.002-40.027a2.314 2.314 0 0 1 .651-1.591 3.616 3.616 0 0 1 1.917-.651 2.314 2.314 0 0 1 1.59.65c.558.28.638.824.65 1.338l.001 38.364h20.538a2.314 2.314 0 0 1 1.591.651c.329.355.554.792.651 1.266.016.405-.139.794-.418 1.075l-.233.19c-.436.399-1 .63-1.59.651h-22.78a2.603 2.603 0 0 1-1.578-.342Zm62.757-11.59h-22.237l-4.158 10.342a2.061 2.061 0 0 1-2.242 1.591 2.314 2.314 0 0 1-1.591-.65c-.558-.28-.638-.824-.649-1.338l-.002-.254a1.23 1.23 0 0 1 .326-1.012l15.041-37.062a10.052 10.052 0 0 1 1.917-3.254 3.833 3.833 0 0 1 5.17 0 9.184 9.184 0 0 1 1.917 3.254l15.042 37.062c0 .325.325.65.325 1.012a2.314 2.314 0 0 1-.65 1.591c-.437.399-1.001.63-1.592.651a2.206 2.206 0 0 1-2.242-1.59l-4.375-10.342Zm-10.847-27.696-9.582 24.19h19.2l-9.618-24.19Z"/>
		<path d="M115.923 26.48 75.534 2.941A23.394 23.394 0 0 0 63.421.012a24.588 24.588 0 0 0-12.185 2.93L11.462 26.48A26.07 26.07 0 0 0 0 47.416V94.42a26.07 26.07 0 0 0 11.534 20.936l40.064 23.539a23.105 23.105 0 0 0 11.86 2.929 22.454 22.454 0 0 0 11.86-2.93l40.388-23.466a27.986 27.986 0 0 0 12.186-20.935V47.488a25.528 25.528 0 0 0-11.969-21.008ZM92.565 94.494c-.37.253-.819.368-1.266.325a3.363 3.363 0 0 1-2.603-1.59l-16.018-32.29L56.66 93.156a3.182 3.182 0 0 1-2.604 1.59c-.325 0-1.012 0-1.265-.325a2.965 2.965 0 0 1-1.193-4.013L69.677 54.61l-6.11-12.185-25.312 50.91a2.862 2.862 0 0 1-5.098-2.603l27.77-55.9a2.459 2.459 0 0 1 2.603-1.591 3.037 3.037 0 0 1 2.603 1.59l6.581 13.596 3.218 6.075 18.08 36.158a2.965 2.965 0 0 1-1.447 3.833Z"/>
	</g>
</svg>
